assets/icons/Food-Drink/Food/food-steak--cook-grill-steak-bbq-cooking-nutrition-barbecue-grilling-food.svg

<svg xmlns="http://www.w3.org/2000/svg" width="14" height="14" viewBox="0 0 14 14"><g fill="none" fill-rule="evenodd" stroke-linecap="round" stroke-linejoin="round"><path stroke="currentColor" d="M8.343892,2.5 C4.013892,2.5 0.223892,3.15 0.223892,6 C0.386660168,7.49780876 1.72433489,8.5857842 3.223892,8.44 C3.6617077,8.43961463 4.09567512,8.35824574 4.503892,8.2 C4.75894246,8.08868685 5.04884154,8.08868685 5.303892,8.2 C6.23511695,8.71485692 7.27986506,8.98979063 8.343892,9 C11.043892,9 13.223892,7.54 13.223892,5.75 C13.223892,3.96 11.043892,2.5 8.343892,2.5 Z"/><path stroke="currentColor" d="M13.223892,5.75 L13.223892,8.25 C13.223892,10.04 11.043892,11.5 8.343892,11.5 C7.27908931,11.5146256 6.22741867,11.2637369 5.283892,10.77 C5.02884154,10.6586869 4.73894246,10.6586869 4.483892,10.77 C4.07502818,10.9248314 3.64108134,11.0028063 3.203892,11 C1.70433489,11.1457842 0.366660168,10.0578088 0.203892,8.56 L0.203892,6"/><circle cx="3.724" cy="5.5" r="1" stroke="currentColor"/></g></svg>

<svg width="14" height="14" viewBox="0 0 14 14" xmlns="http://www.w3.org/2000/svg"><g fill="none" fill-rule="evenodd" stroke-linecap="round" stroke-linejoin="round" transform="translate(.296)" stroke="currentColor"><path d="M8.344 2.5c-4.33 0-8.12.65-8.12 3.5a2.75 2.75 0 0 0 3 2.44 3.55 3.55 0 0 0 1.28-.24 1 1 0 0 1 .8 0 6.41 6.41 0 0 0 3.04.8c2.7 0 4.88-1.46 4.88-3.25s-2.18-3.25-4.88-3.25z"/><path d="M13.224 5.75v2.5c0 1.79-2.18 3.25-4.88 3.25a6.41 6.41 0 0 1-3.06-.73 1 1 0 0 0-.8 0 3.55 3.55 0 0 1-1.28.23 2.75 2.75 0 0 1-3-2.44V6"/><circle cx="3.724" cy="5.5" r="1"/></g></svg>
